X:45
T:Biodag Air Mac Alasdiar
R:Reel
B:The Athole Collection
M:C|
L:1/8
K:A
Beed cAB2|cAAB =GAB2|Bee=g dgBd|cA A/A/A =GEE:|
e|cA A/A/A d=GdB|cAAc dB=GB|cA A/A/A d=GdB|cAAB =GEEe|
cA A/A/A d=GdB|cAAc dB=GB|cA A/A/A dB B/B/B|cA A/A/A =GEE||

